!!!OTL: 1237. Das buckelige Maennlein.
!!!ARE: Europa, Mitteleuropa, Deutschland
!!!SCT: K1237
!!!TXL: @@DE
!!!YEM: Copyright 1995, estate of Helmut Schaffrath.
**kern	**text
*clefG2	*
*M2/4	*
*k[f#]	*
*G:	*
{8g	1._Will
8g	ich
8f#	in
8g	mein
=1	=1
8a	Gärt-
16aL	-chen
16bJ	.
8g	gehn,
8r}	.
=2	=2
{8b	will
8b	mein
8a	Ʒwie-
8dd	-beln
=3	=3
4b/	gie-
8g	-ßen,
8r}	.
=4	=4
{8dd	ſteht
16eeL	ein
16ddJ	.
8cc	buck-
16ddL	-lig
16ccJ	.
=5	=5
8b	Männ-
16ccL	-lein
16bJ	.
8a	da,
8r}	.
=6	=6
{8b	fängt
8cc	gleich
8dd	an
16eeL	ʒu
16ccJ	.
=7	=7
8bL	nie-
8aJ	.
8g	-ßen.
8r}	.
==	==
!!!AGN: Kinder - Lied, Luegen - Maerchen, Aberglaube
!!!ONB: ESAC (Essen Associative Code) Database: KINDER
!!!AMT: simple duple
!!!AIN: vox
!!!EED: Helmut Schaffrath
!!!EEV: 1.0
!!!GTL: VIII. Lustige geschichten. [Thiermaerchen, Neck- und Luegenmaerchen und Zaehlgeschichten.]
!!Mel. seit 1810 dazu
!!@@COMMENT:"Text im Wunderhorn III, 1808; Anh. 54. Daher in viele Schulleſebücher übergegangen. Die Melodie ſteht ʒuerſt in, Ad alte deutſche Lieder aus dem Wunder-
!!horn" Heidelberg 1810 Nr. 24. Sie iſt (wie die Rotiʒ beſagt) aus dem "Wiener Geangbuche" (v. Jahrh. 1774 Nr. 17) entlehnt. Dort ſteht ſie allerdings ʒu 
!!einem Fronleichnamsliede: "Kommt ʒum großen Abendmahl ". Das buckelige Männlein, das noch in andern Volkeliedern vorlommt, iſt offenbar ein Kobold 
!!(Hausgeiſt in Ʒwerggeſtalt), Troll, auch Schrat genannt, und ſo birgt dieſes märchenartige Liedlein abergläubiſche Erinnerungen."
!!@@END:
!!!URL-scan: https://archive.org/details/DeutschesKinderliedUndKinderspiel/page/251/mode/1up
!!!ENC: Anna Maria Matuszewska
!!!EEV: 2024/02/09
*-	*-
